X: 3
T:Belled Cow
R:Reel
N:From Ruthie Dornfield on â€œWays of the Worldâ€
M:4/4
K:E
efe=d BdBA|GBAG E=DB,D| EFGA Bc=dB|c2c3 BAc|
efe=d BdBA|GBAG E=DB,D| EFGA Bc=dB|c2c3 BAc:|
|:B3BB2 BA|GFGA BGE2|A3GF2A2|A2G2FEFG|
B3BB2 BA|GFGA B2c2|=d2c2 BcBA|GFGA BGE2:|

